src/assets/metronic/worbby/global/img/icon-benefits3.svg

<?xml version="1.0" encoding="UTF-8"?>
<svg width="80px" height="80px" viewBox="0 0 80 80" version="1.1" xmlns="http://www.w3.org/2000/svg" xmlns:xlink="http://www.w3.org/1999/xlink">
    <!-- Generator: Sketch 42 (36781) - http://www.bohemiancoding.com/sketch -->
    <title>icon-benefits3</title>
    <desc>Created with Sketch.</desc>
    <defs>
        <linearGradient x1="0%" y1="49.9979293%" x2="99.9874969%" y2="49.9979293%" id="linearGradient-1">
            <stop stop-color="#FFB247" offset="0%"></stop>
            <stop stop-color="#FFCB33" offset="100%"></stop>
        </linearGradient>
    </defs>
    <g id="Desktop" stroke="none" stroke-width="1" fill="none" fill-rule="evenodd">
        <g id="Desktop-Home-Worbbior" transform="translate(-795.000000, -1307.000000)">
            <g id="icon-benefits3" transform="translate(795.000000, 1307.000000)">
                <path d="M13.8562092,46.5359477 C13.8562092,64.5843137 28.4875817,79.2156863 46.5359477,79.2156863 L46.5359477,79.2156863 C64.5843137,79.2156863 79.2156863,64.5843137 79.2156863,46.5359477 L79.2156863,46.5359477 C79.2156863,28.4875817 64.5843137,13.8562092 46.5359477,13.8562092 L46.5359477,13.8562092 C28.4875817,13.8562092 13.8562092,28.4875817 13.8562092,46.5359477" id="Fill-15" fill="url(#linearGradient-1)"></path>
                <path d="M33.4640523,61.2679739 C18.130719,61.2679739 5.66013072,48.7973856 5.66013072,33.4640523 C5.66013072,18.130719 18.130719,5.66013072 33.4640523,5.66013072 C48.7973856,5.66013072 61.2679739,18.130719 61.2679739,33.4640523 C61.2679739,48.7973856 48.7973856,61.2679739 33.4640523,61.2679739 M33.4640523,0.784313725 C15.4379085,0.784313725 0.784313725,15.4379085 0.784313725,33.4640523 C0.784313725,51.4901961 15.4379085,66.1437908 33.4640523,66.1437908 C51.4901961,66.1437908 66.1437908,51.4901961 66.1437908,33.4640523 C66.1437908,15.4379085 51.4901961,0.784313725 33.4640523,0.784313725" id="Fill-17" fill="#1E2225"></path>
                <path d="M35.9086275,32.4575163 L35.9086275,12.4575163 C35.9086275,11.1111111 34.8105882,10.0130719 33.464183,10.0130719 C32.1177778,10.0130719 31.0197386,11.1111111 31.0197386,12.4575163 L31.0197386,33.4640523 C31.0197386,34.1045752 31.2811765,34.7320261 31.7386928,35.1895425 L43.7386928,47.1895425 C44.209281,47.6601307 44.836732,47.9084967 45.464183,47.9084967 C46.091634,47.9084967 46.719085,47.6732026 47.1896732,47.1895425 C48.1439216,46.2352941 48.1439216,44.6928105 47.1896732,43.7385621 L35.9086275,32.4575163 Z" id="Fill-19" fill="#1E2225"></path>
            </g>
        </g>
    </g>
</svg>

<svg xmlns="http://www.w3.org/2000/svg" width="80" height="80"><defs><linearGradient id="a" x1="0%" x2="99.9875%" y1="49.9979%" y2="49.9979%"><stop stop-color="#FFB247" offset="0%"/><stop stop-color="#FFCB33" offset="100%"/></linearGradient></defs><g fill="none" fill-rule="evenodd"><path fill="url(#a)" d="M13.8562 46.536c0 18.0483 14.6314 32.6797 32.6797 32.6797 18.0483 0 32.6797-14.6314 32.6797-32.6798S64.5843 13.856 46.536 13.856 13.856 28.4876 13.856 46.536"/><path fill="#1E2225" d="M33.464 61.268c-15.3333 0-27.804-12.4706-27.804-27.804C5.66 18.1308 18.1308 5.66 33.464 5.66c15.3334 0 27.804 12.4707 27.804 27.804 0 15.3334-12.4706 27.804-27.804 27.804m0-60.4837C15.438.7843.7844 15.438.7844 33.464S15.438 66.144 33.464 66.144 66.144 51.4902 66.144 33.464C66.1438 15.438 51.4902.7844 33.464.7844"/><path fill="#1E2225" d="M35.9086 32.4575v-20c0-1.3464-1.098-2.4444-2.4444-2.4444-1.3464 0-2.4445 1.098-2.4445 2.4445V33.464c0 .6406.2615 1.268.719 1.7255l12 12c.4706.4706 1.098.719 1.7255.719.6274 0 1.255-.2353 1.7255-.719.9542-.9542.9542-2.4967 0-3.451l-11.281-11.281z"/></g></svg>
